X: 265
T:Connolly's Reel
R:reel
Z:id:hn-reel-564
M:C|
K:D
f2df edBc|dBAF EDB,C|DF~F2 AF~F2|ABdf g2ag|
f2df edBc|dBAF EDB,C|DEFA Bcdf|edBc d3e:|
|:fddc dfaf|bfaf gfef|dfaf ~g3b|1 afdf e2de|fddc dfaf|bfaf gfef|
dBAF ABdf|edBc d3e:|2 afdf e2fg|~a3b afdf|gefd edBc|dB~B2 ABdf|edBc
d3e||
<end>
<start>
